PortableApps/LibreOfficePortable/App/libreoffice/help/media/icon-themes/cmd/lc_datasubtotals.svg

<svg viewBox="0 0 24 24" xmlns="http://www.w3.org/2000/svg"><path d="m10 3v3h4v-3zm7 0v3h4v-3zm-7 7v4h4v-4zm7 0v4h4v-4zm-7 8v3h4v-3zm7 0v3h4v-3z" fill="#fff"/><path d="m4 16v2h-2v2h2v2h2v-2h2v-2h-2v-2z" fill="#76a797"/><path d="m4 9v2h-2v2h2v2h2v-2h2v-2h-2v-2z" fill="#76a797"/><path d="m9 2v5h6v-5zm7 0v5h6v-5zm-11 1c-.554 0-1 .446-1 1v3c0 .554.446 1 1 1s1-.446 1-1v-2h1c.554 0 1-.446 1-1s-.446-1-1-1zm5 0h4v3h-4zm7 0h4v3h-4zm-6 1v1h2v-1zm7 0v1h2v-1zm-9 5v6h6v-6zm7 0v6h6v-6zm-6 1h4v4h-4zm7 0h4v4h-4zm-8 7v5h6v-5zm7 0v5h6v-5zm-6 1h4v3h-4zm7 0h4v3h-4z" fill="#808080"/><path d="m11 11v2h2v-2zm0 8v1h2v-1zm7 0v1h2v-1z" fill="#e68497"/></svg>

<svg viewBox="0 0 24 24" xmlns="http://www.w3.org/2000/svg">
  <path
     style="fill:#ffffff"
     d="M 10 3 L 10 6 L 14 6 L 14 3 L 10 3 z M 17 3 L 17 6 L 21 6 L 21 3 L 17 3 z M 10 10 L 10 14 L 14 14 L 14 10 L 10 10 z M 17 10 L 17 14 L 21 14 L 21 10 L 17 10 z M 10 18 L 10 21 L 14 21 L 14 18 L 10 18 z M 17 18 L 17 21 L 21 21 L 21 18 L 17 18 z "
     />
  <path
     style="fill:#76a797"
     d="m 4,16 v 2 H 2 v 2 h 2 v 2 H 6 V 20 H 8 V 18 H 6 v -2 z"
     />
  <path
     style="fill:#76a797"
     d="m 4,9 v 2 H 2 v 2 h 2 v 2 H 6 V 13 H 8 V 11 H 6 V 9 Z"
     />
  <path
     style="fill:#808080"
     d="M 9 2 L 9 7 L 15 7 L 15 2 L 9 2 z M 16 2 L 16 7 L 22 7 L 22 2 L 16 2 z M 5 3 C 4.446 3 4 3.446 4 4 L 4 7 C 4 7.554 4.446 8 5 8 C 5.554 8 6 7.554 6 7 L 6 5 L 7 5 C 7.554 5 8 4.554 8 4 C 8 3.446 7.554 3 7 3 L 5 3 z M 10 3 L 14 3 L 14 6 L 10 6 L 10 3 z M 17 3 L 21 3 L 21 6 L 17 6 L 17 3 z M 11 4 L 11 5 L 13 5 L 13 4 L 11 4 z M 18 4 L 18 5 L 20 5 L 20 4 L 18 4 z M 9 9 L 9 15 L 15 15 L 15 9 L 9 9 z M 16 9 L 16 15 L 22 15 L 22 9 L 16 9 z M 10 10 L 14 10 L 14 14 L 10 14 L 10 10 z M 17 10 L 21 10 L 21 14 L 17 14 L 17 10 z M 9 17 L 9 22 L 15 22 L 15 17 L 9 17 z M 16 17 L 16 22 L 22 22 L 22 17 L 16 17 z M 10 18 L 14 18 L 14 21 L 10 21 L 10 18 z M 17 18 L 21 18 L 21 21 L 17 21 L 17 18 z "
     />
  <path
     style="fill:#e68497"
     d="m 11,11 v 2 h 2 v -2 z m 0,8 v 1 h 2 v -1 z m 7,0 v 1 h 2 v -1 z"
     />
</svg>
